tools/download-figma-icons/icons/solid/sun-moon.svg

<svg width="24" height="24" viewBox="0 0 24 24" fill="none" xmlns="http://www.w3.org/2000/svg">
<path fill-rule="evenodd" clip-rule="evenodd" d="M8.09988 3.08349C7.68588 3.08349 7.34988 2.74824 7.34988 2.33349V0.750244C7.34988 0.335494 7.68588 0.000244141 8.09988 0.000244141C8.51463 0.000244141 8.84988 0.335494 8.84988 0.750244V2.33349C8.84988 2.74824 8.51463 3.08349 8.09988 3.08349ZM8.10281 12.0673C10.2936 12.0673 12.0703 10.2898 12.0703 8.0998C12.0703 5.9098 10.2936 4.1323 8.10281 4.1323C5.90531 4.1323 4.13607 5.9098 4.13607 8.0998C4.13607 10.2898 5.90531 12.0673 8.10281 12.0673ZM17.5007 23.9624C21.0632 23.9624 23.9582 21.0674 23.9582 17.5049C23.9582 14.8499 22.3682 12.4949 19.9007 11.5124C19.6 11.3931 19.2632 11.4749 19.0532 11.7149C18.8432 11.9556 18.8132 12.3006 18.9707 12.5781C19.3825 13.3124 19.6082 14.1524 19.6082 15.0156C19.6082 17.7449 17.38 19.9724 14.6507 19.9724C14.0132 19.9724 13.3907 19.8524 12.8132 19.6199C12.5132 19.4924 12.1757 19.5749 11.9657 19.8149C11.755 20.0549 11.7182 20.4074 11.8757 20.6849C13.0157 22.7031 15.1757 23.9624 17.5007 23.9624ZM3.49227 4.55269C3.63852 4.69894 3.83052 4.77244 4.02252 4.77244C4.21452 4.77244 4.40652 4.69894 4.55277 4.55269C4.84602 4.25944 4.84602 3.78469 4.55277 3.49219L3.43302 2.37319C3.13977 2.07994 2.66427 2.07994 2.37177 2.37319C2.07927 2.66569 2.07927 3.14119 2.37252 3.43369L3.49227 4.55269ZM2.33274 8.85055H0.750244C0.335494 8.85055 0.000244141 8.5153 0.000244141 8.10055C0.000244141 7.6858 0.335494 7.35055 0.750244 7.35055H2.33274C2.74749 7.35055 3.08274 7.6858 3.08274 8.10055C3.08274 8.5153 2.74749 8.85055 2.33274 8.85055ZM2.3716 13.8281C2.51785 13.9743 2.7106 14.0478 2.9026 14.0478C3.0946 14.0478 3.2866 13.9743 3.43285 13.8281L4.5526 12.7091C4.84585 12.4166 4.84585 11.9411 4.5526 11.6486C4.2601 11.3553 3.78535 11.3553 3.4921 11.6486L2.37235 12.7676C2.0791 13.0601 2.0791 13.5348 2.3716 13.8281ZM8.09988 16.2012C7.68588 16.2012 7.34988 15.8659 7.34988 15.4512V13.8679C7.34988 13.4532 7.68588 13.1179 8.09988 13.1179C8.51463 13.1179 8.84988 13.4532 8.84988 13.8679V15.4512C8.84988 15.8659 8.51463 16.2012 8.09988 16.2012ZM12.7676 13.8281C12.9139 13.9743 13.1059 14.0478 13.2979 14.0478C13.4899 14.0478 13.6819 13.9743 13.8281 13.8281C14.1214 13.5348 14.1214 13.0608 13.8281 12.7676L12.7084 11.6486C12.4151 11.3553 11.9396 11.3553 11.6479 11.6486C11.3546 11.9411 11.3546 12.4158 11.6479 12.7091L12.7676 13.8281ZM15.4505 8.85055H13.8672C13.4532 8.85055 13.1172 8.5153 13.1172 8.10055C13.1172 7.6858 13.4532 7.35055 13.8672 7.35055H15.4505C15.8652 7.35055 16.2005 7.6858 16.2005 8.10055C16.2005 8.5153 15.8652 8.85055 15.4505 8.85055ZM11.6478 4.55269C11.794 4.69894 11.986 4.77244 12.178 4.77244C12.37 4.77244 12.562 4.69894 12.7083 4.55269L13.828 3.43369C14.1213 3.14044 14.1213 2.66569 13.828 2.37319C13.5355 2.07994 13.0608 2.07994 12.7675 2.37319L11.6478 3.49219C11.3545 3.78544 11.3545 4.25944 11.6478 4.55269Z" fill="black"/>
</svg>

<svg xmlns="http://www.w3.org/2000/svg" width="24" height="24" fill="none" viewBox="0 0 24 24"><path fill="currentColor" fill-rule="evenodd" d="M8.1 3.083a.75.75 0 0 1-.75-.75V.75a.75.75 0 1 1 1.5 0v1.583a.75.75 0 0 1-.75.75m.003 8.984a3.969 3.969 0 0 0 0-7.935A3.964 3.964 0 0 0 4.136 8.1c0 2.19 1.77 3.967 3.967 3.967M17.5 23.962a6.46 6.46 0 0 0 6.457-6.457c0-2.655-1.59-5.01-4.057-5.993a.748.748 0 0 0-.93 1.066 5 5 0 0 1 .637 2.438 4.97 4.97 0 0 1-4.957 4.956c-.638 0-1.26-.12-1.838-.352a.74.74 0 0 0-.847.195.76.76 0 0 0-.09.87 6.48 6.48 0 0 0 5.625 3.277M3.492 4.552a.75.75 0 0 0 1.06 0 .75.75 0 0 0 0-1.06L3.434 2.373a.75.75 0 1 0-1.06 1.06zm-1.16 4.299H.75a.75.75 0 1 1 0-1.5h1.583a.75.75 0 1 1 0 1.5m.04 4.977a.75.75 0 0 0 1.06 0l1.12-1.119a.75.75 0 1 0-1.06-1.06l-1.12 1.119a.75.75 0 0 0 0 1.06M8.1 16.201a.75.75 0 0 1-.75-.75v-1.583a.75.75 0 1 1 1.5 0v1.583a.75.75 0 0 1-.75.75m4.668-2.373a.75.75 0 0 0 1.06 0 .75.75 0 0 0 0-1.06l-1.12-1.12a.75.75 0 1 0-1.06 1.061zm2.682-4.977h-1.583a.75.75 0 1 1 0-1.5h1.583a.75.75 0 1 1 0 1.5m-3.802-4.298a.75.75 0 0 0 1.06 0l1.12-1.12a.75.75 0 1 0-1.06-1.06l-1.12 1.12a.75.75 0 0 0 0 1.06" clip-rule="evenodd"/></svg>
